my-app/src/app/media/wpp_button.svg

<svg width="61" height="61" viewBox="0 0 61 61" fill="none" xmlns="http://www.w3.org/2000/svg">
<circle cx="30.3427" cy="30.3427" r="30.3427" fill="#5C7383"/>
<path fill-rule="evenodd" clip-rule="evenodd" d="M37.245 33.3326C36.8691 33.1455 35.0263 32.2442 34.6832 32.1187C34.3402 31.9944 34.0904 31.9329 33.8394 32.307C33.5897 32.6786 32.872 33.5196 32.6538 33.7681C32.4343 34.0179 32.2161 34.0481 31.8415 33.8623C31.4669 33.674 30.2586 33.2811 28.827 32.0108C27.7133 31.0216 26.9603 29.8002 26.7421 29.4262C26.5238 29.0534 26.7181 28.8513 26.906 28.6655C27.075 28.4985 27.2806 28.2299 27.4686 28.0127C27.6565 27.7943 27.7183 27.6387 27.8432 27.3889C27.9693 27.1403 27.9062 26.9232 27.8116 26.7361C27.7183 26.5491 26.9691 24.7127 26.6563 23.9658C26.3523 23.239 26.0433 23.3381 25.8137 23.3256C25.5943 23.3155 25.3445 23.313 25.0948 23.313C24.845 23.313 24.4389 23.4059 24.0958 23.78C23.7515 24.1528 22.7841 25.0553 22.7841 26.8918C22.7841 28.727 24.1261 30.5007 24.314 30.7505C24.502 30.999 26.9565 34.7673 30.7164 36.3828C31.612 36.767 32.3095 36.9967 32.8531 37.1674C33.7511 37.4523 34.5685 37.4122 35.2143 37.3155C35.9332 37.2088 37.4316 36.413 37.7444 35.5418C38.056 34.6707 38.056 33.9238 37.9626 33.7681C37.8693 33.6125 37.6196 33.5196 37.2437 33.3326H37.245ZM30.4062 42.6253H30.4011C28.1679 42.6257 25.9756 42.0282 24.0542 40.8955L23.6001 40.6269L18.8803 41.8596L20.1404 37.2804L19.844 36.8109C18.5954 34.833 17.9347 32.544 17.9381 30.2082C17.9407 23.367 23.5333 17.8012 30.4112 17.8012C33.741 17.8012 36.8716 19.0941 39.2252 21.4389C40.3861 22.5895 41.3062 23.9577 41.9323 25.4644C42.5584 26.9712 42.8781 28.5865 42.8729 30.217C42.8704 37.0582 37.2778 42.6253 30.4062 42.6253ZM41.0163 19.6577C39.6265 18.2655 37.973 17.1617 36.1515 16.4101C34.33 15.6585 32.3767 15.2742 30.4049 15.2793C22.1383 15.2793 15.408 21.9762 15.4054 30.207C15.4016 32.8264 16.0921 35.4005 17.4071 37.6695L15.2793 45.4057L23.2306 43.3295C25.4301 44.5221 27.895 45.1471 30.3998 45.1471H30.4062C38.6728 45.1471 45.4031 38.4503 45.4056 30.2182C45.4117 28.2566 45.0269 26.3132 44.2735 24.5006C43.5201 22.6879 42.413 21.0419 41.0163 19.6577Z" fill="white"/>
</svg>

<svg xmlns="http://www.w3.org/2000/svg" width="61" height="61" fill="none"><circle cx="30.343" cy="30.343" r="30.343" fill="#5C7383"/><path fill="#fff" fill-rule="evenodd" d="M37.245 33.333c-.376-.187-2.219-1.089-2.562-1.214s-.593-.186-.844.188c-.25.372-.967 1.213-1.185 1.461-.22.25-.438.28-.813.094-.374-.188-1.582-.58-3.014-1.851-1.114-.99-1.867-2.21-2.085-2.585-.218-.373-.024-.575.164-.76.169-.168.375-.436.563-.653.188-.219.25-.374.374-.624.126-.249.063-.466-.031-.653s-.843-2.023-1.156-2.77c-.304-.727-.613-.628-.842-.64-.22-.01-.47-.013-.72-.013-.249 0-.655.093-.998.467-.344.373-1.312 1.275-1.312 3.112 0 1.835 1.342 3.609 1.53 3.858s2.642 4.017 6.402 5.633c.896.384 1.593.614 2.137.784.898.285 1.715.245 2.361.148.72-.106 2.218-.902 2.53-1.773s.312-1.618.219-1.774c-.094-.156-.343-.248-.72-.435zm-6.839 9.292h-.005c-2.233 0-4.425-.597-6.347-1.73l-.454-.268-4.72 1.233 1.26-4.58-.296-.47a12.33 12.33 0 0 1-1.906-6.602c.003-6.841 5.595-12.407 12.473-12.407 3.33 0 6.46 1.293 8.814 3.638a12.3 12.3 0 0 1 2.707 4.025c.626 1.507.946 3.123.94 4.753-.002 6.841-5.594 12.408-12.466 12.408m10.61-22.967a14.9 14.9 0 0 0-4.864-3.248 15 15 0 0 0-5.747-1.13c-8.267 0-14.997 6.696-15 14.927a14.84 14.84 0 0 0 2.002 7.462l-2.128 7.737 7.952-2.076a15.04 15.04 0 0 0 7.169 1.817h.006c8.267 0 14.997-6.697 15-14.929a14.8 14.8 0 0 0-1.133-5.717 14.8 14.8 0 0 0-3.257-4.843" clip-rule="evenodd"/></svg>
